floristman/img/sprite/search.svg

<svg width="46" height="47" viewBox="0 0 46 47" fill="none" xmlns="http://www.w3.org/2000/svg">
<path d="M19.9329 5.42538C11.4827 5.42538 4.59961 12.3085 4.59961 20.7587C4.59961 29.2089 11.4827 36.092 19.9329 36.092C23.6076 36.092 26.9823 34.7872 29.6271 32.6211L38.7822 41.7762C38.9234 41.9233 39.0927 42.0408 39.2799 42.1217C39.4672 42.2027 39.6687 42.2454 39.8727 42.2475C40.0767 42.2496 40.2791 42.211 40.468 42.1338C40.6568 42.0567 40.8284 41.9427 40.9727 41.7985C41.1169 41.6542 41.231 41.4826 41.3081 41.2937C41.3852 41.1049 41.4238 40.9025 41.4217 40.6985C41.4197 40.4945 41.3769 40.293 41.296 40.1057C41.215 39.9185 41.0975 39.7492 40.9504 39.6079L31.7953 30.4529C33.9614 27.808 35.2663 24.4334 35.2663 20.7587C35.2663 12.3085 28.3831 5.42538 19.9329 5.42538ZM19.9329 8.49205C26.7258 8.49205 32.1996 13.9659 32.1996 20.7587C32.1996 27.5516 26.7258 33.0254 19.9329 33.0254C13.1401 33.0254 7.66628 27.5516 7.66628 20.7587C7.66628 13.9659 13.1401 8.49205 19.9329 8.49205Z" fill="#EB8671"/>
</svg>

<svg width="46" height="47" fill="none" xmlns="http://www.w3.org/2000/svg"><path d="M19.933 5.425C11.483 5.425 4.6 12.31 4.6 20.76s6.883 15.333 15.333 15.333c3.675 0 7.05-1.305 9.694-3.47l9.155 9.154a1.533 1.533 0 1 0 2.168-2.168l-9.155-9.155a15.253 15.253 0 0 0 3.471-9.694c0-8.45-6.883-15.334-15.333-15.334zm0 3.067A12.244 12.244 0 0 1 32.2 20.76a12.243 12.243 0 0 1-12.267 12.266A12.243 12.243 0 0 1 7.666 20.76 12.244 12.244 0 0 1 19.933 8.492z" fill="#EB8671"/></svg>
